Sources/FrostedUI/Resources/Icons.xcassets/people216.imageset/people-2-16.svg

<svg width="16" height="16" viewBox="0 0 16 16" fill="none" xmlns="http://www.w3.org/2000/svg" data-fui-icon="true">
  <g clip-path="url(#clip0_4061_24)">
    <path
      d="M5.60034 0.849609C7.7816 0.849779 9.55034 2.61855 9.55054 4.7998C9.55049 5.84837 9.14016 6.80055 8.47339 7.50781C9.7884 8.15833 10.6162 9.16635 11.1248 10.1152C12.0776 11.8934 11.3055 14.1003 9.2937 14.7002C8.41517 14.9621 7.27168 15.1494 5.80054 15.1494C4.15277 15.1494 2.9161 14.9137 2.00269 14.6025C0.228402 13.998 -0.518274 12.0775 0.160889 10.4102C0.578598 9.38481 1.35137 8.24003 2.73901 7.52148C2.06488 6.8129 1.6502 5.85492 1.65015 4.7998C1.65034 2.61845 3.41894 0.849609 5.60034 0.849609ZM6.92847 8.52051C6.51332 8.66878 6.06639 8.74996 5.60034 8.75C5.13649 8.75 4.69156 8.66936 4.27808 8.52246C2.71577 8.9581 1.9467 10.0041 1.55054 10.9766C1.16879 11.9141 1.59797 12.88 2.48608 13.1826C3.22522 13.4344 4.29636 13.6494 5.80054 13.6494C7.14348 13.6494 8.14095 13.4785 8.86499 13.2627C9.88906 12.9573 10.3458 11.8385 9.80249 10.8242C9.30369 9.89342 8.44534 8.93227 6.92847 8.52051ZM10.8005 1.65039C12.54 1.65066 13.95 3.06125 13.95 4.80078C13.9498 5.52207 13.7036 6.18396 13.2957 6.71484C14.1465 7.15292 14.7351 7.76066 15.1345 8.36719C16.0779 9.79996 15.6115 11.7709 14.0017 12.5186C13.8301 12.5983 13.6443 12.674 13.4451 12.7432C13.0539 12.8785 12.6267 12.6714 12.491 12.2803C12.3555 11.8892 12.5629 11.462 12.9539 11.3262C13.1055 11.2736 13.244 11.2166 13.3699 11.1582C14.0952 10.8214 14.354 9.91003 13.8816 9.19238C13.514 8.63416 12.9084 8.05411 11.8738 7.76172C11.5388 7.88318 11.1775 7.95014 10.8005 7.9502C10.3864 7.9502 10.0507 7.61424 10.0505 7.2002C10.0506 6.78607 10.3864 6.4502 10.8005 6.4502C11.7113 6.44993 12.4495 5.71154 12.45 4.80078C12.45 3.88968 11.7116 3.15066 10.8005 3.15039C10.706 3.15039 10.6134 3.15788 10.5242 3.17285C10.1158 3.24136 9.7296 2.96591 9.66089 2.55762C9.59235 2.14911 9.86762 1.76287 10.2761 1.69434C10.447 1.66566 10.6225 1.65039 10.8005 1.65039ZM5.60034 2.34961C4.24737 2.34961 3.15034 3.44688 3.15015 4.7998C3.15025 6.15281 4.24731 7.25 5.60034 7.25C6.95323 7.24983 8.05043 6.15271 8.05054 4.7998C8.05034 3.44698 6.95317 2.34978 5.60034 2.34961Z"
      fill="currentColor"
    />
  </g>
  <defs>
    <clipPath id="clip0_4061_24"><path fill="currentColor" d="M0 0H16V16H0z" /></clipPath>
  </defs>
</svg>

<svg xmlns="http://www.w3.org/2000/svg" width="16" height="16" fill="none" data-fui-icon="true" viewBox="0 0 16 16"><g clip-path="url(#a)"><path fill="currentColor" d="M5.6.85A3.95 3.95 0 0 1 9.55 4.8c0 1.048-.41 2-1.077 2.708 1.315.65 2.143 1.658 2.652 2.607.953 1.778.18 3.985-1.831 4.585-.879.262-2.022.45-3.493.45-1.648 0-2.885-.236-3.798-.548C.228 13.999-.518 12.078.16 10.41c.418-1.025 1.19-2.17 2.578-2.889A3.95 3.95 0 0 1 5.6.85m1.328 7.67a3.94 3.94 0 0 1-2.65.002c-1.562.436-2.331 1.482-2.727 2.455-.382.937.047 1.903.935 2.206.74.251 1.81.466 3.315.466 1.342 0 2.34-.17 3.064-.386 1.024-.306 1.48-1.424.937-2.439-.498-.93-1.357-1.892-2.874-2.303M10.8 1.65a3.15 3.15 0 0 1 3.15 3.15c0 .722-.246 1.384-.654 1.915a4.83 4.83 0 0 1 1.838 1.652c.944 1.433.477 3.404-1.132 4.152q-.258.12-.557.224a.75.75 0 0 1-.491-1.417q.227-.08.416-.168c.725-.337.984-1.248.512-1.966-.368-.558-.974-1.138-2.008-1.43a3.1 3.1 0 0 1-1.074.188.75.75 0 0 1 0-1.5 1.65 1.65 0 1 0-.276-3.277.75.75 0 0 1-.248-1.479 3 3 0 0 1 .524-.044m-5.2.7a2.45 2.45 0 1 0 .001 4.9 2.45 2.45 0 0 0 0-4.9"/></g><defs><clipPath id="a"><path fill="currentColor" d="M0 0h16v16H0z"/></clipPath></defs></svg>
